; generated by PrusaSlicer 2.9.2 on 2025-11-14 at 03:34:23 UTC

; 

; external perimeters extrusion width = 0.42mm
; perimeters extrusion width = 0.44mm
; infill extrusion width = 0.44mm
; solid infill extrusion width = 0.44mm
; top infill extrusion width = 0.40mm
; support material extrusion width = 0.36mm
; first layer extrusion width = 0.42mm

M201 X500 Y500 Z100 E5000 ; sets maximum accelerations, mm/sec^2
M203 X500 Y500 Z10 E60 ; sets maximum feedrates, mm / sec
M204 P500 R1000 T500 ; sets acceleration (P, T) and retract acceleration (R), mm/sec^2
M205 X8.00 Y8.00 Z0.40 E5.00 ; sets the jerk limits, mm/sec
M205 S0 T0 ; sets the minimum extruding and travel feed rate, mm/sec

; printing object Juntar id:0 copy 0
; stop printing object Juntar id:0 copy 0

;TYPE:Custom
G90 ; use absolute coordinates
M83 ; extruder relative mode
M104 S260 ; set temporary nozzle temp to prevent oozing during homing and auto bed leveling
M140 S60 ; set final bed temp
G4 S30 ; allow partial nozzle warmup
G28 ; home all axis
G29 ; auto bed levelling
G1 Z50 F240
G1 X2.0 Y10 F3000
M104 S260 ; set final nozzle temp
M190 S60 ; wait for bed temp to stabilize
M109 S260 ; wait for nozzle temp to stabilize
G1 Z0.28 F240
G92 E0
G1 X2.0 Y140 E10 F1500 ; prime the nozzle
G1 X2.3 Y140 F5000
G92 E0
G1 X2.3 Y10 E10 F1200 ; prime the nozzle
G92 E0
G21 ; set units to millimeters
G90 ; use absolute coordinates
M83 ; use relative distances for extrusion
; Filament gcode
M107
;LAYER_CHANGE
;Z:0.2
;HEIGHT:0.2
G1 E-5 F3600
G1 Z.2 F9000
G1 X88.289 Y87.309
G1 Z.2
G1 E5 F2400
M204 P500
;TYPE:Skirt/Brim
;WIDTH:0.42
G1 F1200
G1 X90 Y86.811 E.05587
G1 X130 Y86.811 E1.25417
G1 X131.535 Y87.205 E.04969
G1 X132.691 Y88.289 E.04969
G1 X133.189 Y90 E.05587
G1 X133.189 Y130 E1.25417
G1 X132.795 Y131.535 E.04969
G1 X131.711 Y132.691 E.04969
G1 X130 Y133.189 E.05587
G1 X90 Y133.189 E1.25417
G1 X88.465 Y132.795 E.04969
G1 X87.309 Y131.711 E.04969
G1 X86.811 Y130 E.05587
G1 X86.811 Y90 E1.25417
G1 X87.205 Y88.465 E.04969
G1 X88.248 Y87.353 E.0478
G1 E-3.5 F3600
;WIPE_START
G1 F7200
G1 X88.289 Y87.309 E-.02857
G1 X90 Y86.811 E-.84645
G1 X91.316 Y86.811 E-.62498
;WIPE_END
; printing object Juntar id:0 copy 0
G1 X91.064 Y91.064 F9000
G1 E5 F2400
;TYPE:Perimeter
;WIDTH:0.419999
G1 F1200
G1 X128.936 Y91.064 E1.18745
G1 X128.936 Y110 E.59372
G1 X128.936 Y128.936 E.59372
G1 X91.064 Y128.936 E1.18745
G1 X91.064 Y91.124 E1.18557
G1 X90.687 Y90.687 F9000
G1 F1200
G1 X129.313 Y90.687 E1.21109
G1 X129.313 Y110 E.60554
G1 X129.313 Y129.313 E.60554
G1 X90.687 Y129.313 E1.21109
G1 X90.687 Y90.747 E1.20921
G1 X90.31 Y90.31 F9000
;TYPE:External perimeter
G1 F1200
G1 X129.69 Y90.31 E1.23473
G1 X129.69 Y110 E.61737
G1 X129.69 Y129.69 E.61737
G1 X90.31 Y129.69 E1.23473
G1 X90.31 Y90.37 E1.23285
G1 E-3.5 F3600
;WIPE_START
G1 F7200
G1 X90.31 Y90.31 E-.0285
G1 X93.408 Y90.31 E-1.4715
;WIPE_END
G1 X128.815 Y91.949 F9000
G1 E5 F2400
;TYPE:Solid infill
;WIDTH:0.420726
G1 F1200
G1 X128.221 Y91.355 E.02639
G1 X127.687 Y91.355 E.01678
G1 X128.645 Y92.313 E.04256
G1 X128.645 Y92.848 E.01681
G1 X127.152 Y91.355 E.06633
G1 X126.618 Y91.355 E.01678
G1 X128.645 Y93.382 E.09005
G1 X128.645 Y93.916 E.01678
G1 X126.084 Y91.355 E.11378
G1 X125.55 Y91.355 E.01678
G1 X128.645 Y94.45 E.1375
G1 X128.645 Y94.985 E.01681
G1 X125.015 Y91.355 E.16127
G1 X124.481 Y91.355 E.01678
G1 X128.645 Y95.519 E.18499
G1 X128.645 Y96.053 E.01678
G1 X123.947 Y91.355 E.20872
G1 X123.412 Y91.355 E.01681
G1 X128.645 Y96.588 E.23249
G1 X128.645 Y97.122 E.01678
G1 X122.878 Y91.355 E.25621
G1 X122.344 Y91.355 E.01678
G1 X128.645 Y97.656 E.27994
G1 X128.645 Y98.191 E.01681
G1 X121.809 Y91.355 E.3037
G1 X121.275 Y91.355 E.01678
G1 X128.645 Y98.725 E.32743
G1 X128.645 Y99.259 E.01678
G1 X120.741 Y91.355 E.35115
G1 X120.207 Y91.355 E.01678
G1 X128.645 Y99.793 E.37488
G1 X128.645 Y100.328 E.01681
G1 X119.672 Y91.355 E.39864
G1 X119.138 Y91.355 E.01678
G1 X128.645 Y100.862 E.42237
G1 X128.645 Y101.396 E.01678
G1 X118.604 Y91.355 E.44609
G1 X118.069 Y91.355 E.01681
G1 X128.645 Y101.931 E.46986
G1 X128.645 Y102.465 E.01678
G1 X117.535 Y91.355 E.49358
G1 X117.001 Y91.355 E.01678
G1 X128.645 Y102.999 E.51731
G1 X128.645 Y103.534 E.01681
G1 X116.466 Y91.355 E.54108
G1 X115.932 Y91.355 E.01678
G1 X128.645 Y104.068 E.5648
G1 X128.645 Y104.602 E.01678
G1 X115.398 Y91.355 E.58853
G1 X114.864 Y91.355 E.01678
G1 X128.645 Y105.136 E.61225
G1 X128.645 Y105.671 E.01681
G1 X114.329 Y91.355 E.63602
G1 X113.795 Y91.355 E.01678
G1 X128.645 Y106.205 E.65974
G1 X128.645 Y106.739 E.01678
G1 X113.261 Y91.355 E.68347
G1 X112.726 Y91.355 E.01681
G1 X128.645 Y107.274 E.70723
G1 X128.645 Y107.808 E.01678
G1 X112.192 Y91.355 E.73096
G1 X111.658 Y91.355 E.01678
G1 X128.645 Y108.342 E.75468
G1 X128.645 Y108.876 E.01678
G1 X111.124 Y91.355 E.77841
G1 X110.589 Y91.355 E.01681
G1 X128.645 Y109.411 E.80218
G1 X128.645 Y109.945 E.01678
G1 X110.055 Y91.355 E.8259
G1 X109.521 Y91.355 E.01678
G1 X128.645 Y110.479 E.84962
G1 X128.645 Y111.014 E.01681
G1 X108.986 Y91.355 E.87339
G1 X108.452 Y91.355 E.01678
G1 X128.645 Y111.548 E.89712
G1 X128.645 Y112.082 E.01678
G1 X107.918 Y91.355 E.92084
G1 X107.383 Y91.355 E.01681
G1 X128.645 Y112.617 E.94461
G1 X128.645 Y113.151 E.01678
G1 X106.849 Y91.355 E.96833
G1 X106.315 Y91.355 E.01678
G1 X128.645 Y113.685 E.99206
G1 X128.645 Y114.219 E.01678
G1 X105.781 Y91.355 E1.01578
G1 X105.246 Y91.355 E.01681
G1 X128.645 Y114.754 E1.03955
G1 X128.645 Y115.288 E.01678
G1 X104.712 Y91.355 E1.06327
G1 X104.178 Y91.355 E.01678
G1 X128.645 Y115.822 E1.087
G1 X128.645 Y116.357 E.01681
G1 X103.643 Y91.355 E1.11077
G1 X103.109 Y91.355 E.01678
G1 X128.645 Y116.891 E1.13449
G1 X128.645 Y117.425 E.01678
G1 X102.575 Y91.355 E1.15821
G1 X102.04 Y91.355 E.01681
G1 X128.645 Y117.96 E1.18198
G1 X128.645 Y118.494 E.01678
G1 X101.506 Y91.355 E1.20571
G1 X100.972 Y91.355 E.01678
G1 X128.645 Y119.028 E1.22943
G1 X128.645 Y119.562 E.01678
G1 X100.438 Y91.355 E1.25315
G1 X99.903 Y91.355 E.01681
G1 X128.645 Y120.097 E1.27692
G1 X128.645 Y120.631 E.01678
G1 X99.369 Y91.355 E1.30065
G1 X98.835 Y91.355 E.01678
G1 X128.645 Y121.165 E1.32437
G1 X128.645 Y121.7 E.01681
G1 X98.3 Y91.355 E1.34814
G1 X97.766 Y91.355 E.01678
G1 X128.645 Y122.234 E1.37186
G1 X128.645 Y122.768 E.01678
G1 X97.232 Y91.355 E1.39559
G1 X96.697 Y91.355 E.01681
G1 X128.645 Y123.303 E1.41936
G1 X128.645 Y123.837 E.01678
G1 X96.163 Y91.355 E1.44308
G1 X95.629 Y91.355 E.01678
G1 X128.645 Y124.371 E1.4668
G1 X128.645 Y124.905 E.01678
G1 X95.095 Y91.355 E1.49053
G1 X94.56 Y91.355 E.01681
G1 X128.645 Y125.44 E1.5143
G1 X128.645 Y125.974 E.01678
G1 X94.026 Y91.355 E1.53802
G1 X93.492 Y91.355 E.01678
G1 X128.645 Y126.508 E1.56175
G1 X128.645 Y127.043 E.01681
G1 X92.957 Y91.355 E1.58551
G1 X92.423 Y91.355 E.01678
G1 X128.645 Y127.577 E1.60924
G1 X128.645 Y128.111 E.01678
G1 X91.889 Y91.355 E1.63296
G1 X91.355 Y91.355 E.01678
G1 X128.645 Y128.645 E1.65669
G1 X128.111 Y128.645 E.01678
G1 X91.355 Y91.889 E1.63296
G1 X91.355 Y92.423 E.01678
G1 X127.577 Y128.645 E1.60924
G1 X127.043 Y128.645 E.01678
G1 X91.355 Y92.957 E1.58551
G1 X91.355 Y93.492 E.01681
G1 X126.508 Y128.645 E1.56175
G1 X125.974 Y128.645 E.01678
G1 X91.355 Y94.026 E1.53802
G1 X91.355 Y94.56 E.01678
G1 X125.44 Y128.645 E1.5143
G1 X124.905 Y128.645 E.01681
G1 X91.355 Y95.095 E1.49053
G1 X91.355 Y95.629 E.01678
G1 X124.371 Y128.645 E1.4668
G1 X123.837 Y128.645 E.01678
G1 X91.355 Y96.163 E1.44308
G1 X91.355 Y96.698 E.01681
G1 X123.302 Y128.645 E1.41931
G1 X122.768 Y128.645 E.01678
G1 X91.355 Y97.232 E1.39559
G1 X91.355 Y97.766 E.01678
G1 X122.234 Y128.645 E1.37186
G1 X121.7 Y128.645 E.01678
G1 X91.355 Y98.3 E1.34814
G1 X91.355 Y98.835 E.01681
G1 X121.165 Y128.645 E1.32437
G1 X120.631 Y128.645 E.01678
G1 X91.355 Y99.369 E1.30065
G1 X91.355 Y99.903 E.01678
G1 X120.097 Y128.645 E1.27692
G1 X119.562 Y128.645 E.01681
G1 X91.355 Y100.438 E1.25315
G1 X91.355 Y100.972 E.01678
G1 X119.028 Y128.645 E1.22943
G1 X118.494 Y128.645 E.01678
G1 X91.355 Y101.506 E1.20571
G1 X91.355 Y102.041 E.01681
G1 X117.959 Y128.645 E1.18194
G1 X117.425 Y128.645 E.01678
G1 X91.355 Y102.575 E1.15821
G1 X91.355 Y103.109 E.01678
G1 X116.891 Y128.645 E1.13449
G1 X116.357 Y128.645 E.01678
G1 X91.355 Y103.643 E1.11077
G1 X91.355 Y104.178 E.01681
G1 X115.822 Y128.645 E1.087
G1 X115.288 Y128.645 E.01678
G1 X91.355 Y104.712 E1.06327
G1 X91.355 Y105.246 E.01678
G1 X114.754 Y128.645 E1.03955
G1 X114.219 Y128.645 E.01681
G1 X91.355 Y105.781 E1.01578
G1 X91.355 Y106.315 E.01678
G1 X113.685 Y128.645 E.99206
G1 X113.151 Y128.645 E.01678
G1 X91.355 Y106.849 E.96833
G1 X91.355 Y107.384 E.01681
G1 X112.617 Y128.645 E.94459
G1 X112.082 Y128.645 E.01681
G1 X91.355 Y107.918 E.92084
G1 X91.355 Y108.452 E.01678
G1 X111.548 Y128.645 E.89712
G1 X111.014 Y128.645 E.01678
G1 X91.355 Y108.986 E.87339
G1 X91.355 Y109.521 E.01681
G1 X110.479 Y128.645 E.84962
G1 X109.945 Y128.645 E.01678
G1 X91.355 Y110.055 E.8259
G1 X91.355 Y110.589 E.01678
G1 X109.411 Y128.645 E.80218
G1 X108.876 Y128.645 E.01681
G1 X91.355 Y111.124 E.77841
G1 X91.355 Y111.658 E.01678
G1 X108.342 Y128.645 E.75468
G1 X107.808 Y128.645 E.01678
G1 X91.355 Y112.192 E.73096
G1 X91.355 Y112.726 E.01678
G1 X107.274 Y128.645 E.70723
G1 X106.739 Y128.645 E.01681
G1 X91.355 Y113.261 E.68347
G1 X91.355 Y113.795 E.01678
G1 X106.205 Y128.645 E.65974
G1 X105.671 Y128.645 E.01678
G1 X91.355 Y114.329 E.63602
G1 X91.355 Y114.864 E.01681
G1 X105.136 Y128.645 E.61225
G1 X104.602 Y128.645 E.01678
G1 X91.355 Y115.398 E.58853
G1 X91.355 Y115.932 E.01678
G1 X104.068 Y128.645 E.5648
G1 X103.533 Y128.645 E.01681
G1 X91.355 Y116.467 E.54103
G1 X91.355 Y117.001 E.01678
G1 X102.999 Y128.645 E.51731
G1 X102.465 Y128.645 E.01678
G1 X91.355 Y117.535 E.49358
G1 X91.355 Y118.069 E.01678
G1 X101.931 Y128.645 E.46986
G1 X101.396 Y128.645 E.01681
G1 X91.355 Y118.604 E.44609
G1 X91.355 Y119.138 E.01678
G1 X100.862 Y128.645 E.42237
G1 X100.328 Y128.645 E.01678
G1 X91.355 Y119.672 E.39864
G1 X91.355 Y120.207 E.01681
G1 X99.793 Y128.645 E.37488
G1 X99.259 Y128.645 E.01678
G1 X91.355 Y120.741 E.35115
G1 X91.355 Y121.275 E.01678
G1 X98.725 Y128.645 E.32743
G1 X98.19 Y128.645 E.01681
G1 X91.355 Y121.81 E.30366
G1 X91.355 Y122.344 E.01678
G1 X97.656 Y128.645 E.27994
G1 X97.122 Y128.645 E.01678
G1 X91.355 Y122.878 E.25621
G1 X91.355 Y123.412 E.01678
G1 X96.588 Y128.645 E.23249
G1 X96.053 Y128.645 E.01681
G1 X91.355 Y123.947 E.20872
G1 X91.355 Y124.481 E.01678
G1 X95.519 Y128.645 E.18499
G1 X94.985 Y128.645 E.01678
G1 X91.355 Y125.015 E.16127
G1 X91.355 Y125.55 E.01681
G1 X94.45 Y128.645 E.1375
G1 X93.916 Y128.645 E.01678
G1 X91.355 Y126.084 E.11378
G1 X91.355 Y126.618 E.01678
G1 X93.382 Y128.645 E.09005
G1 X92.847 Y128.645 E.01681
G1 X91.355 Y127.153 E.06629
G1 X91.355 Y127.687 E.01678
G1 X92.313 Y128.645 E.04256
G1 X91.779 Y128.645 E.01678
G1 X91.185 Y128.051 E.02639
;LAYER_CHANGE
;Z:0.36
;HEIGHT:0.16
;BEFORE_LAYER_CHANGE
G92 E0
;0.36


G1 E-3.5 F3600
;WIPE_START
G1 F7200
G1 X91.779 Y128.645 E-.39902
G1 X92.313 Y128.645 E-.25365
G1 X91.355 Y127.687 E-.64354
G1 X91.355 Y127.258 E-.20379
;WIPE_END
G1 Z.36 F9000
;AFTER_LAYER_CHANGE
;0.36
; stop printing object Juntar id:0 copy 0
G1 Z.36
G1 X86.811 Y128.051
G1 E5 F2400
;TYPE:Skirt/Brim
;WIDTH:0.42
G1 X86.811 Y90 E.97618
G1 X87.205 Y88.465 E.04066
G1 X88.289 Y87.309 E.04066
G1 X90 Y86.811 E.04572
G1 X130 Y86.811 E1.02618
G1 X131.535 Y87.205 E.04066
G1 X132.691 Y88.289 E.04066
G1 X133.189 Y90 E.04572
G1 X133.189 Y130 E1.02618
G1 X132.795 Y131.535 E.04066
G1 X131.711 Y132.691 E.04066
G1 X130 Y133.189 E.04572
G1 X90 Y133.189 E1.02618
G1 X88.465 Y132.795 E.04066
G1 X87.309 Y131.711 E.04066
G1 X86.811 Y130 E.04572
G1 X86.811 Y128.111 E.04846
G1 E-3.5 F3600
;WIPE_START
G1 F7200
G1 X86.811 Y128.051 E-.0285
G1 X86.811 Y124.953 E-1.4715
;WIPE_END
; printing object Juntar id:0 copy 0
G1 X91.011 Y128.989 F9000
G1 E5 F2400
;TYPE:Perimeter
;WIDTH:0.439999
G1 X91.011 Y91.011 E1.02483
G1 X128.989 Y91.011 E1.02483
G1 X128.989 Y128.989 E1.02483
G1 X91.071 Y128.989 E1.02321
G1 X90.606 Y129.394 F9000
G1 F2400
G1 X90.606 Y90.606 E1.04669
G1 X129.394 Y90.606 E1.04669
G1 X129.394 Y129.394 E1.04669
G1 X90.666 Y129.394 E1.04507
G1 X90.21 Y129.79 F9000
;TYPE:External perimeter
;WIDTH:0.419999
G1 F1500
G1 X90.21 Y90.21 E1.0154
G1 X129.79 Y90.21 E1.0154
G1 X129.79 Y129.79 E1.0154
G1 X90.27 Y129.79 E1.01386
G1 E-3.5 F3600
;WIPE_START
G1 F7200
G1 X90.21 Y129.79 E-.0285
G1 X90.21 Y126.692 E-1.4715
;WIPE_END
G1 X91.434 Y91.357 F9000
G1 E5 F2400
;TYPE:Solid infill
;WIDTH:0.538422
G2 X91.417 Y91.417 I-.058 J.017 E.01053
;WIDTH:0.439999
G1 X91.324 Y92.065 E.01767
G1 X92.065 Y91.324 E.02828
G1 X92.639 Y91.324 E.01549
G1 X91.324 Y92.639 E.05018
G1 X91.324 Y93.213 E.01549
G1 X93.213 Y91.324 E.07209
G1 X93.786 Y91.324 E.01546
G1 X91.324 Y93.786 E.09396
G1 X91.324 Y94.36 E.01549
G1 X94.36 Y91.324 E.11586
G1 X94.934 Y91.324 E.01549
G1 X91.324 Y94.934 E.13777
G1 X91.324 Y95.508 E.01549
G1 X95.508 Y91.324 E.15967
G1 X96.081 Y91.324 E.01546
G1 X91.324 Y96.081 E.18154
G1 X91.324 Y96.655 E.01549
G1 X96.655 Y91.324 E.20344
G1 X97.229 Y91.324 E.01549
G1 X91.324 Y97.229 E.22535
G1 X91.324 Y97.802 E.01546
G1 X97.802 Y91.324 E.24722
G1 X98.376 Y91.324 E.01549
G1 X91.324 Y98.376 E.26912
G1 X91.324 Y98.95 E.01549
G1 X98.95 Y91.324 E.29103
G1 X99.523 Y91.324 E.01546
G1 X91.324 Y99.523 E.31289
G1 X91.324 Y100.097 E.01549
G1 X100.097 Y91.324 E.3348
G1 X100.671 Y91.324 E.01549
G1 X91.324 Y100.671 E.3567
G1 X91.324 Y101.245 E.01549
G1 X101.245 Y91.324 E.37861
G1 X101.818 Y91.324 E.01546
G1 X91.324 Y101.818 E.40048
G1 X91.324 Y102.392 E.01549
G1 X102.392 Y91.324 E.42238
G1 X102.966 Y91.324 E.01549
G1 X91.324 Y102.966 E.44429
G1 X91.324 Y103.539 E.01546
G1 X103.539 Y91.324 E.46615
G1 X104.113 Y91.324 E.01549
G1 X91.324 Y104.113 E.48806
G1 X91.324 Y104.687 E.01549
G1 X104.687 Y91.324 E.50996
G1 X105.26 Y91.324 E.01546
G1 X91.324 Y105.26 E.53183
G1 X91.324 Y105.834 E.01549
G1 X105.834 Y91.324 E.55373
G1 X106.408 Y91.324 E.01549
G1 X91.324 Y106.408 E.57564
G1 X91.324 Y106.981 E.01546
G1 X106.981 Y91.324 E.59751
G1 X107.555 Y91.324 E.01549
G1 X91.324 Y107.555 E.61941
G1 X91.324 Y108.129 E.01549
G1 X108.129 Y91.324 E.64132
G1 X108.703 Y91.324 E.01549
G1 X91.324 Y108.703 E.66322
G1 X91.324 Y109.276 E.01546
G1 X109.276 Y91.324 E.68509
G1 X109.85 Y91.324 E.01549
G1 X91.324 Y109.85 E.70699
G1 X91.324 Y110.424 E.01549
G1 X110.424 Y91.324 E.7289
G1 X110.997 Y91.324 E.01546
G1 X91.324 Y110.997 E.75077
G1 X91.324 Y111.571 E.01549
G1 X111.571 Y91.324 E.77267
G1 X112.145 Y91.324 E.01549
G1 X91.324 Y112.145 E.79458
G1 X91.324 Y112.718 E.01546
G1 X112.718 Y91.324 E.81644
G1 X113.292 Y91.324 E.01549
G1 X91.324 Y113.292 E.83835
G1 X91.324 Y113.866 E.01549
G1 X113.866 Y91.324 E.86025
G1 X114.439 Y91.324 E.01546
G1 X91.324 Y114.439 E.88212
G1 X91.324 Y115.013 E.01549
G1 X115.013 Y91.324 E.90403
G1 X115.587 Y91.324 E.01549
G1 X91.324 Y115.587 E.92593
G1 X91.324 Y116.161 E.01549
G1 X116.161 Y91.324 E.94784
G1 X116.734 Y91.324 E.01546
G1 X91.324 Y116.734 E.9697
G1 X91.324 Y117.308 E.01549
G1 X117.308 Y91.324 E.99161
G1 X117.882 Y91.324 E.01549
G1 X91.324 Y117.882 E1.01351
G1 X91.324 Y118.455 E.01546
G1 X118.455 Y91.324 E1.03538
G1 X119.029 Y91.324 E.01549
G1 X91.324 Y119.029 E1.05729
G1 X91.324 Y119.603 E.01549
G1 X119.603 Y91.324 E1.07919
G1 X120.176 Y91.324 E.01546
G1 X91.324 Y120.176 E1.10106
G1 X91.324 Y120.75 E.01549
G1 X120.75 Y91.324 E1.12296
G1 X121.324 Y91.324 E.01549
G1 X91.324 Y121.324 E1.14487
G1 X91.324 Y121.898 E.01549
G1 X121.898 Y91.324 E1.16677
G1 X122.471 Y91.324 E.01546
G1 X91.324 Y122.471 E1.18864
G1 X91.324 Y123.045 E.01549
G1 X123.045 Y91.324 E1.21055
G1 X123.619 Y91.324 E.01549
G1 X91.324 Y123.619 E1.23245
G1 X91.324 Y124.192 E.01546
G1 X124.192 Y91.324 E1.25432
G1 X124.766 Y91.324 E.01549
G1 X91.324 Y124.766 E1.27622
G1 X91.324 Y125.34 E.01549
G1 X125.34 Y91.324 E1.29813
G1 X125.913 Y91.324 E.01546
G1 X91.324 Y125.913 E1.32
G1 X91.324 Y126.487 E.01549
G1 X126.487 Y91.324 E1.3419
G1 X127.061 Y91.324 E.01549
G1 X91.324 Y127.061 E1.36381
G1 X91.324 Y127.634 E.01546
