; generated by PrusaSlicer 2.9.2 on 2025-11-25 at 04:33:29 UTC

; 

; external perimeters extrusion width = 0.42mm
; perimeters extrusion width = 0.44mm
; infill extrusion width = 0.44mm
; solid infill extrusion width = 0.44mm
; top infill extrusion width = 0.40mm
; support material extrusion width = 0.36mm
; first layer extrusion width = 0.42mm

M201 X500 Y500 Z100 E5000 ; sets maximum accelerations, mm/sec^2
M203 X500 Y500 Z10 E60 ; sets maximum feedrates, mm / sec
M204 P500 R1000 T500 ; sets acceleration (P, T) and retract acceleration (R), mm/sec^2
M205 X8.00 Y8.00 Z0.40 E5.00 ; sets the jerk limits, mm/sec
M205 S0 T0 ; sets the minimum extruding and travel feed rate, mm/sec

; printing object Cute Wolf 4.stl id:0 copy 0
; stop printing object Cute Wolf 4.stl id:0 copy 0

;TYPE:Custom
G90 ; use absolute coordinates
M83 ; extruder relative mode
M104 S260 ; set temporary nozzle temp to prevent oozing during homing and auto bed leveling
M140 S60 ; set final bed temp
G4 S30 ; allow partial nozzle warmup
G28 ; home all axis
G29 ; auto bed levelling
G1 Z50 F240
G1 X2.0 Y10 F3000
M104 S269 ; set final nozzle temp
M190 S60 ; wait for bed temp to stabilize
M109 S269 ; wait for nozzle temp to stabilize
G1 Z0.28 F240
G92 E0
G1 X2.0 Y140 E10 F1500 ; prime the nozzle
G1 X2.3 Y140 F5000
G92 E0
G1 X2.3 Y10 E10 F1200 ; prime the nozzle
G92 E0
G21 ; set units to millimeters
G90 ; use absolute coordinates
M83 ; use relative distances for extrusion
; Filament gcode
M107
;LAYER_CHANGE
;Z:0.2
;HEIGHT:0.2
G1 E-5 F3600
G1 Z.2 F9000
G1 X92.949 Y85.827
G1 Z.2
G1 E5 F2400
M204 P500
;TYPE:Skirt/Brim
;WIDTH:0.42
G1 F1200
G3 X95.541 Y84.038 I5.279 J4.875 E.09956
G3 X99.364 Y83.186 I4.684 J12.014 E.12329
G1 X106.675 Y82.899 E.22941
G1 X112.498 Y83.196 E.18281
G1 X116.822 Y83.615 E.13621
G3 X121.664 Y85.537 I-1.175 J10.018 E.16521
G1 X127.342 Y90.589 E.2383
G3 X131.21 Y95.785 I-16.443 J16.278 E.20377
G3 X132.909 Y100.445 I-19.79 J9.856 E.15585
G3 X131.722 Y110.208 I-16.433 J2.956 E.31301
G1 X120.479 Y132.403 E.7801
G3 X118.108 Y135.536 I-9.082 J-4.411 E.12398
G3 X113.878 Y137.081 I-4.549 J-5.891 E.14345
G1 X97.835 Y137.103 E.50302
G3 X91.354 Y133.085 I.032 J-7.289 E.25161
G3 X89.345 Y127.841 I19.995 J-10.665 E.17653
G1 X86.884 Y116.124 E.37539
G3 X86.907 Y110.906 I30.191 J-2.476 E.16381
G1 X91.261 Y88.944 E.702
G3 X92.908 Y85.872 I6.967 J1.758 E.11039
G1 E-3.5 F3600
;WIPE_START
G1 F7200
G1 X92.949 Y85.827 E-.02892
G3 X95.469 Y84.068 I5.279 J4.875 E-1.47108
;WIPE_END
; printing object Cute Wolf 4.stl id:0 copy 0
G1 X117.882 Y106.212 F9000
G1 E5 F2400
;TYPE:External perimeter
;WIDTH:0.419999
G1 F1200
G3 X117.972 Y106.229 I.006 J.219 E.00289
G3 X118.427 Y106.829 I-2.774 J2.573 E.02365
;WIDTH:0.456438
G1 X118.424 Y106.893 E.0022
;WIDTH:0.492876
G1 X118.422 Y106.957 E.0024
;WIDTH:0.529314
G1 X118.419 Y107.022 E.00263
G1 X118.186 Y107.254 E.0133
;WIDTH:0.50708
G1 X118.067 Y107.242 E.00462
;WIDTH:0.46354
G1 X117.947 Y107.23 E.00422
;WIDTH:0.419999
G1 X117.519 Y106.962 E.01583
G1 X117.466 Y106.812 E.00499
G1 X117.708 Y106.306 E.01759
G3 X117.823 Y106.222 I.18 J.125 E.00455
G1 E-3.5 F3600
;WIPE_START
G1 F7200
G1 X117.882 Y106.212 E-.02842
G3 X117.972 Y106.229 I.005 J.219 E-.04383
G3 X118.427 Y106.829 I-2.773 J2.575 E-.35827
G1 X118.424 Y106.893 E-.03043
G1 X118.422 Y106.957 E-.03041
G1 X118.419 Y107.022 E-.03091
G1 X118.186 Y107.254 E-.15618
G1 X118.067 Y107.242 E-.05681
G1 X117.947 Y107.23 E-.05728
G1 X117.519 Y106.962 E-.23987
G1 X117.466 Y106.812 E-.07557
G1 X117.708 Y106.306 E-.26642
G3 X117.823 Y106.222 I.18 J.125 E-.0689
;WIPE_END
G1 E-.0567 F3600
G1 X106.847 Y128.946 F9000
G1 E5 F2400
G1 F1200
G1 X106.915 Y128.971 E.00227
G2 X107.916 Y130.163 I18.043 J-14.138 E.04881
G1 X107.972 Y130.255 E.00338
;WIDTH:0.460341
G1 X107.932 Y130.56 E.01068
;WIDTH:0.500682
G1 X107.891 Y130.866 E.01175
;WIDTH:0.534388
G1 X107.849 Y131.067 E.00839
;WIDTH:0.534712
G3 X107.181 Y131.94 I-2.42 J-1.16 E.04527
;WIDTH:0.534496
G3 X106.394 Y132.354 I-1.68 J-2.241 E.0365
;WIDTH:0.533689
G1 X105.957 Y132.432 E.01811
;WIDTH:0.533796
G1 X105.515 Y132.428 E.01804
;WIDTH:0.533956
G3 X104.661 Y132.161 I.353 J-2.629 E.03671
;WIDTH:0.534187
G3 X103.734 Y131.215 I1.252 J-2.154 E.05476
;WIDTH:0.530415
G1 X103.576 Y130.797 E.01811
;WIDTH:0.520916
G1 X103.565 Y130.612 E.00737
;WIDTH:0.487277
G1 X103.555 Y130.426 E.00688
;WIDTH:0.453638
G1 X103.544 Y130.241 E.00633
;WIDTH:0.419999
G1 X103.584 Y130.168 E.00261
G2 X104.581 Y128.997 I-18.13 J-16.432 E.04823
G1 X104.73 Y128.93 E.00512
G2 X106.77 Y128.917 I.957 J-9.683 E.06408
G1 X106.791 Y128.924 E.00069
G1 E-3.5 F3600
;WIPE_START
G1 F7200
G1 X106.847 Y128.946 E-.02858
G1 X106.915 Y128.971 E-.03441
G2 X107.916 Y130.163 I18.045 J-14.137 E-.73951
G1 X107.972 Y130.255 E-.05116
G1 X107.932 Y130.56 E-.14612
G1 X107.891 Y130.866 E-.14665
G1 X107.849 Y131.067 E-.09754
G3 X107.569 Y131.526 I-2.42 J-1.16 E-.25603
;WIPE_END
G1 X108.702 Y130.258 F9000
G1 E5 F2400
;TYPE:Perimeter
G1 F1200
G2 X108.492 Y129.677 I-.761 J-.054 E.01994
G3 X107.517 Y128.515 I12.614 J-11.583 E.04758
G2 X106.718 Y128.164 I-.766 J.658 E.0283
G3 X104.82 Y128.18 I-1.024 J-8.85 E.05963
G2 X104.173 Y128.354 I-.042 J1.136 E.02132
G2 X103.378 Y129.266 I10.945 J10.35 E.03794
G1 X102.986 Y129.708 E.01852
G1 X102.82 Y130.03 E.01136
G1 X102.809 Y130.251 E.00694
G1 X102.588 Y130.27 E.00695
G1 X102.254 Y130.465 E.01213
G3 X99.96 Y132.207 I-8.121 J-8.312 E.09055
G3 X98.281 Y132.817 I-2.618 J-4.592 E.05628
G3 X97.261 Y132.796 I-.383 J-6.151 E.03202
G3 X95.885 Y132.103 I.474 J-2.653 E.04899
G3 X95.093 Y131.058 I4.581 J-4.296 E.04119
G3 X93.268 Y125.627 I14.182 J-7.789 E.18059
G3 X93.245 Y121.676 I18.682 J-2.083 E.12411
G3 X93.512 Y120.235 I20.49 J3.041 E.04596
G2 X93.341 Y119.38 I-2.012 J-.042 E.02756
G1 X93.108 Y118.435 E.03052
G1 X92.963 Y118.117 E.01096
G2 X91.779 Y116.614 I-10.766 J7.257 E.06005
G3 X91.133 Y115.66 I2.558 J-2.43 E.03629
G3 X91.108 Y114.778 I2.117 J-.501 E.02786
G2 X91.412 Y113.911 I-3.446 J-1.696 E.02888
G2 X91.167 Y112.942 I-3.306 J.319 E.03146
G3 X91.092 Y111.678 I3.821 J-.861 E.03988
G3 X91.474 Y110.838 I2.471 J.615 E.02909
G1 X91.881 Y110.447 E.0177
G1 X92.19 Y110.284 E.01095
G2 X93.144 Y109.996 I-.421 J-3.126 E.03138
G2 X93.516 Y109.436 I-.717 J-.881 E.0214
G3 X94.11 Y108.041 I2.343 J.173 E.04841
G1 X94.517 Y107.737 E.01593
G2 X95.482 Y107.263 I-1.12 J-3.497 E.03383
G2 X95.762 Y106.623 I-.848 J-.752 E.02227
G3 X96.273 Y103.941 I6.565 J-.14 E.08623
G2 X96.279 Y103.301 I-1.107 J-.33 E.02033
G3 X95.664 Y100.068 I7.883 J-3.175 E.10384
G3 X95.76 Y97.828 I42.035 J.683 E.07031
G1 X96.099 Y94.513 E.10448
G2 X96.223 Y92.73 I-18.719 J-2.198 E.05606
G2 X95.75 Y91.785 I-3.638 J1.229 E.03324
G3 X95.384 Y90.39 I4.591 J-1.949 E.04538
G3 X95.477 Y89.635 I3.604 J.057 E.0239
G3 X96.654 Y88.235 I2.739 J1.108 E.0583
G3 X98.207 Y87.637 I2.87 J5.144 E.05235
G3 X100.739 Y87.443 I1.947 J8.757 E.07989
G3 X102.746 Y87.88 I-1.924 J13.65 E.06446
G1 X103.025 Y87.852 E.00879
G3 X105.5 Y87.19 I3.209 J7.032 E.0807
G3 X107.509 Y87.217 I.842 J11.87 E.06307
G3 X109.345 Y87.703 I-1.175 J8.158 E.05968
G2 X110.27 Y87.558 I.015 J-2.936 E.02948
G3 X111.367 Y87.425 I1.503 J7.807 E.03468
G3 X113.007 Y87.553 I.173 J8.358 E.05166
G3 X114.001 Y87.867 I-1.54 J6.604 E.03272
G2 X114.892 Y87.851 I.397 J-2.727 E.02806
G3 X117.25 Y88 I.731 J7.166 E.07442
G3 X119.144 Y88.97 I-1.946 J6.132 E.06703
G3 X120.197 Y90.313 I-3.01 J3.445 E.05382
G3 X120.68 Y91.379 I-5.365 J3.077 E.03675
G1 X120.871 Y91.875 E.01666
G1 X121.104 Y92.15 E.0113
G1 X121.44 Y92.322 E.01184
G3 X123.464 Y93.053 I-1.922 J8.488 E.06765
G3 X125.067 Y94.345 I-2.662 J4.942 E.06492
G3 X125.629 Y95.277 I-10.057 J6.704 E.03414
G3 X127.447 Y97.795 I-4.96 J5.496 E.09811
G1 X127.704 Y98.57 E.0256
G3 X128.592 Y100.643 I-6.223 J3.892 E.07099
G3 X128.941 Y103.316 I-10.788 J2.769 E.08473
G3 X127.819 Y108.488 I-12.566 J-.018 E.16719
G3 X127.234 Y109.269 I-2.355 J-1.156 E.03077
G3 X125.461 Y109.66 I-1.286 J-1.618 E.05894
G3 X124.247 Y109.128 I1.456 J-4.982 E.04167
G1 X123.892 Y108.994 E.0119
G3 X121.348 Y108.197 I1.104 J-7.99 E.08397
G3 X119.923 Y107.221 I2.595 J-5.317 E.05435
G1 X119.493 Y106.83 E.01822
G1 X119.157 Y106.663 E.01176
G1 X119.103 Y106.478 E.00604
G2 X118.448 Y105.641 I-4.829 J3.11 E.03337
G2 X117.5 Y105.527 I-.581 J.826 E.03118
G2 X117.036 Y105.964 I.515 J1.012 E.02026
G2 X116.712 Y106.777 I2.013 J1.273 E.0276
G2 X116.926 Y107.429 I1.137 J-.012 E.02186
G2 X117.751 Y107.962 I2.209 J-2.517 E.03091
G2 X118.127 Y108.767 I4.57 J-1.643 E.0279
G2 X118.314 Y109.61 I8.63 J-1.481 E.02709
G2 X118.838 Y110.088 I.989 J-.557 E.02262
G1 X119.477 Y110.324 E.02136
G3 X120.173 Y110.874 I-1.44 J2.535 E.02792
G1 X120.428 Y111.32 E.01611
G3 X120.512 Y112.169 I-2.638 J.69 E.02686
G3 X120.174 Y113.727 I-5.18 J-.305 E.05019
G1 X120.184 Y114.091 E.01142
G3 X120.499 Y115.161 I-2.843 J1.42 E.03515
G3 X120.235 Y116.042 I-2.014 J-.124 E.02909
G3 X119.387 Y117.045 I-9.125 J-6.854 E.0412
G2 X118.555 Y118.243 I7.636 J6.188 E.04577
G2 X118.066 Y119.939 I9.65 J3.702 E.05541
G1 X118.094 Y120.289 E.01101
G3 X118.411 Y121.709 I-6.597 J2.22 E.0457
G3 X118.158 Y126.115 I-20.005 J1.061 E.13866
G3 X116.447 Y130.923 I-16.591 J-3.197 E.16063
G3 X115.787 Y131.877 I-7.663 J-4.598 E.0364
G3 X114.843 Y132.584 I-2.306 J-2.094 E.0372
G3 X112.959 Y132.771 I-1.335 J-3.86 E.05991
G3 X111.261 Y132.059 I1.249 J-5.363 E.058
G3 X110.242 Y131.336 I5.561 J-8.917 E.0392
G1 X109.236 Y130.449 E.04205
G1 X108.908 Y130.268 E.01175
G1 X108.762 Y130.26 E.00458
G1 X108.489 Y130.63 F9000
G1 F1200
G1 X108.251 Y130.811 E.00938
G2 X108.335 Y130.153 I-1.529 J-.53 E.02095
G1 X108.211 Y129.928 E.00806
G3 X107.222 Y128.751 I12.779 J-11.736 E.04822
G2 X106.743 Y128.54 I-.49 J.467 E.01685
G3 X104.697 Y128.553 I-1.086 J-9.982 E.06426
G1 X104.434 Y128.634 E.00863
G2 X103.217 Y130.045 I16.513 J15.46 E.05844
G2 X103.238 Y130.764 I1.346 J.322 E.02282
G1 X102.968 Y130.606 E.00981
G2 X102.506 Y130.745 I-.047 J.678 E.01546
G3 X100.141 Y132.539 I-8.358 J-8.567 E.09331
G3 X98.328 Y133.192 I-2.807 J-4.943 E.06071
G3 X96.405 Y132.918 I-.417 J-3.957 E.06152
G3 X95.14 Y131.812 I1.425 J-2.907 E.05329
G3 X94.345 Y130.425 I7.418 J-5.172 E.05019
G3 X92.971 Y126.17 I14.869 J-7.151 E.14063
G3 X92.871 Y121.628 I17.516 J-2.657 E.14284
G3 X93.13 Y120.221 I19.774 J2.914 E.04487
G1 X93.135 Y119.975 E.00771
G3 X92.742 Y118.525 I13.723 J-4.501 E.04713
G1 X92.655 Y118.335 E.00655
G2 X91.36 Y116.716 I-10.925 J7.409 E.06507
G3 X90.777 Y115.792 I2.298 J-2.094 E.03443
G3 X90.713 Y114.86 I2.71 J-.655 E.02943
G3 X91.034 Y113.906 I9.589 J2.691 E.03157
G1 X91.009 Y113.669 E.00747
G3 X90.756 Y111.464 I3.806 J-1.554 E.07046
G3 X91.186 Y110.592 I2.993 J.934 E.03061
G1 X91.658 Y110.139 E.02051
G1 X92.058 Y109.926 E.01421
G1 X92.719 Y109.781 E.02122
G2 X93.09 Y109.506 I-.195 J-.651 E.01477
G1 X93.201 Y109.048 E.01478
G3 X93.853 Y107.763 I2.538 J.479 E.04579
G1 X94.329 Y107.407 E.01864
G1 X95.109 Y107.078 E.02654
G2 X95.385 Y106.61 I-.395 J-.548 E.01753
G3 X95.95 Y103.685 I7.453 J-.078 E.09404
G1 X95.923 Y103.425 E.0082
G3 X95.286 Y100.069 I8.218 J-3.296 E.10778
G3 X95.384 Y97.798 I42.645 J.693 E.07128
G1 X95.804 Y93.683 E.12969
G1 X95.857 Y92.845 E.02633
G1 X95.784 Y92.599 E.00805
G1 X95.406 Y91.943 E.02374
G1 X95.125 Y91.144 E.02656
G1 X95.006 Y90.412 E.02325
G3 X95.079 Y89.668 I6.087 J.224 E.02345
G1 X95.296 Y89.107 E.01886
G3 X96.987 Y87.634 I3.132 J1.889 E.07147
G3 X101.894 Y87.261 I3.052 J7.672 E.15668
G1 X102.632 Y87.481 E.02415
G1 X102.889 Y87.496 E.00807
G3 X105.469 Y86.814 I3.387 J7.583 E.08404
G3 X107.554 Y86.843 I.871 J12.308 E.06546
G3 X109.349 Y87.318 I-.949 J7.213 E.05838
G1 X109.632 Y87.323 E.00887
G3 X112.026 Y87.067 I1.939 J6.804 E.07586
G3 X114.082 Y87.497 I-.253 J6.343 E.06616
G2 X114.854 Y87.476 I.327 J-2.224 E.02434
G3 X117.35 Y87.636 I.769 J7.553 E.07878
G3 X119.384 Y88.678 I-2.063 J6.535 E.07199
G3 X120.58 Y90.223 I-3.409 J3.873 E.06163
G3 X121.16 Y91.604 I-6.777 J3.661 E.04704
G2 X121.541 Y91.959 I.617 J-.28 E.01676
G3 X123.641 Y92.72 I-2.012 J8.829 E.07021
G3 X125.358 Y94.104 I-2.849 J5.29 E.06954
G1 X125.965 Y95.084 E.03614
G3 X126.732 Y95.889 I-4.115 J4.691 E.03491
G3 X127.8 Y97.659 I-6.626 J5.204 E.06498
G1 X128.03 Y98.38 E.02373
G3 X128.87 Y100.272 I-5.858 J3.732 E.06515
G3 X129.318 Y103.32 I-10.642 J3.123 E.09691
G3 X128.293 Y108.368 I-12.935 J.001 E.16259
G3 X127.652 Y109.417 I-4.423 J-1.984 E.03865
G3 X126.457 Y110.056 I-1.956 J-2.222 E.04287
G3 X125.151 Y109.953 I-.44 J-2.762 E.04146
G3 X123.828 Y109.365 I4.365 J-11.609 E.04542
G3 X121.858 Y108.841 I1.067 J-7.971 E.06409
G3 X120.473 Y108.148 I3.165 J-8.057 E.04862
G3 X119.295 Y107.157 I5.737 J-8.015 E.04832
G1 X119.026 Y107.013 E.00957
G1 X118.704 Y107.088 E.01037
G1 X118.799 Y106.771 E.01038
G2 X118.584 Y106.379 I-.9 J.238 E.01416
G1 X118.272 Y105.987 E.01571
G2 X117.777 Y105.834 I-.433 J.523 E.01667
G2 X117.372 Y106.135 I.172 J.656 E.01621
G1 X117.135 Y106.604 E.01648
G1 X117.089 Y106.873 E.00856
G1 X117.184 Y107.145 E.00903
G2 X117.881 Y107.61 I1.765 J-1.89 E.02639
G1 X118.201 Y107.553 E.01019
G1 X118.113 Y107.866 E.01019
G1 X118.336 Y108.348 E.01665
G3 X118.618 Y109.345 I-2.443 J1.228 E.03268
G2 X118.969 Y109.734 I.638 J-.224 E.01687
G1 X119.649 Y109.986 E.02274
G1 X120.209 Y110.36 E.02111
G3 X120.786 Y111.195 I-1.626 J1.74 E.03207
G1 X120.878 Y111.614 E.01345
G3 X120.777 Y113.112 I-5.101 J.41 E.04725
G2 X120.538 Y113.905 I3.071 J1.358 E.02603
G1 X120.826 Y114.713 E.0269
G1 X120.876 Y115.317 E.019
G3 X120.289 Y116.596 I-2.374 J-.316 E.04478
G2 X118.898 Y118.404 I7.179 J6.96 E.07168
G2 X118.45 Y119.921 I9.69 J3.684 E.04964
G1 X118.458 Y120.19 E.00844
G3 X118.788 Y121.678 I-6.823 J2.293 E.04788
G3 X118.529 Y126.184 I-20.412 J1.089 E.1418
G3 X116.774 Y131.111 I-16.97 J-3.269 E.16462
G3 X115.533 Y132.627 I-4.507 J-2.425 E.06181
G3 X114.622 Y133.057 I-1.885 J-2.809 E.0317
G3 X112.327 Y132.995 I-1.046 J-3.773 E.07306
G3 X110.002 Y131.628 I2.982 J-7.733 E.08494
G1 X109.042 Y130.78 E.04016
G1 X108.795 Y130.627 E.00911
G1 X108.543 Y130.615 E.00791
G1 X108.624 Y130.992 F9000
;TYPE:External perimeter
G1 F1200
G1 X108.587 Y130.983 E.00119
;WIDTH:0.460341
G1 X108.505 Y131.023 E.00317
;WIDTH:0.500682
G1 X108.422 Y131.063 E.00351
;WIDTH:0.540998
G1 X108.344 Y131.171 E.00552
;WIDTH:0.547972
G3 X107.895 Y131.924 I-3.167 J-1.378 E.03692
;WIDTH:0.532994
G1 X107.51 Y132.304 E.02204
;WIDTH:0.533364
G3 X106.56 Y132.815 I-2.048 J-2.668 E.04418
;WIDTH:0.532495
G1 X106.024 Y132.918 E.02222
;WIDTH:0.532679
G3 X104.958 Y132.816 I-.208 J-3.438 E.04379
;WIDTH:0.534099
G3 X104.039 Y132.334 I1.087 J-3.191 E.04255
;WIDTH:0.534476
G3 X103.341 Y131.513 I2.142 J-2.527 E.04424
;WIDTH:0.549648
G1 X103.116 Y131.06 E.02131
G1 X103.048 Y131.033 E.00308
;WIDTH:0.506432
G1 X102.98 Y131.006 E.00282
;WIDTH:0.463216
G1 X102.913 Y130.979 E.00252
;WIDTH:0.419999
G1 X102.761 Y131.023 E.00496
G3 X100.322 Y132.87 I-8.604 J-8.831 E.09617
G3 X98.376 Y133.568 I-2.997 J-5.295 E.06514
G3 X96.473 Y133.364 I-.506 J-4.259 E.06052
G3 X95.173 Y132.469 I1.272 J-3.24 E.04992
G3 X94.435 Y131.428 I5.525 J-4.695 E.04006
G3 X92.567 Y126.067 I15.08 J-8.261 E.17882
G3 X92.497 Y121.581 I18.589 J-2.536 E.14101
G1 X92.76 Y120.029 E.04936
G1 X92.346 Y118.552 E.0481
G2 X91.083 Y116.972 I-10.554 J7.143 E.06349
G3 X90.351 Y115.649 I2.258 J-2.114 E.04789
G3 X90.377 Y114.573 I3.649 J-.45 E.03387
G1 X90.646 Y113.917 E.02223
G1 X90.651 Y113.786 E.00411
G3 X90.308 Y112.303 I5.218 J-1.987 E.04787
G3 X90.441 Y111.155 I3.983 J-.118 E.03636
G3 X90.898 Y110.345 I4.641 J2.084 E.0292
G1 X91.434 Y109.83 E.02331
G1 X91.927 Y109.569 E.01749
G1 X92.691 Y109.392 E.02459
G1 X92.783 Y109.26 E.00504
G3 X93.595 Y107.484 I2.827 J.22 E.06251
G1 X94.141 Y107.077 E.02135
G1 X94.933 Y106.743 E.02695
G1 X95.008 Y106.6 E.00506
G3 X95.566 Y103.678 I7.246 J-.132 E.09394
G1 X95.568 Y103.553 E.00392
G3 X94.909 Y100.071 I8.556 J-3.422 E.11181
G3 X95.008 Y97.767 I43.256 J.702 E.07232
G1 X95.428 Y93.658 E.12951
G1 X95.48 Y92.891 E.0241
G1 X95.456 Y92.785 E.00341
G1 X95.062 Y92.101 E.02475
G1 X94.758 Y91.237 E.02872
G1 X94.627 Y90.434 E.02551
